images/dmst.svg

<svg height="250" viewBox="0 0 250 250" width="250" xmlns="http://www.w3.org/2000/svg" xmlns:xlink="http://www.w3.org/1999/xlink"><linearGradient id="a" gradientUnits="userSpaceOnUse" x1="41.4479290903" x2="95.10012208426" y1="166.46358207516" y2="166.46358207516"><stop offset="0" stop-color="#f8c6c7"/><stop offset=".6989" stop-color="#ea514e"/></linearGradient><linearGradient id="b"><stop offset="0" stop-color="#f8c6c7"/><stop offset="1" stop-color="#ea514e"/></linearGradient><linearGradient id="c" gradientUnits="userSpaceOnUse" x1="86.76203837018" x2="102.41824749542" xlink:href="#b" y1="48.73034124785" y2="48.73034124785"/><linearGradient id="d" gradientUnits="userSpaceOnUse" x1="143.61923288074" x2="159.27584841625" xlink:href="#b" y1="44.57955190015" y2="44.57955190015"/><linearGradient id="e" gradientUnits="userSpaceOnUse" x1="48.79883151032" x2="211.08425808718" xlink:href="#b" y1="144.21049905391" y2="144.21049905391"/><linearGradient id="f" gradientUnits="userSpaceOnUse" x1="172.17982528208" x2="212.98408312323" y1="173.47870975285" y2="173.47870975285"><stop offset="0" stop-color="#f8c6c7"/><stop offset=".7688" stop-color="#ea514e"/></linearGradient><path d="m61.738281 149.410156c0 24.070313 51.117188 63.011719 26.804688 63.011719-24.316407 0-47.09375-21.894531-47.09375-45.964844 0-24.066406 6.074219-45.953125 30.386719-45.953125s-10.097657 4.835938-10.097657 28.90625zm0 0" fill="url(#a)" fill-rule="evenodd"/><path d="m102.121094 22.089844s2.808594 29.523437-8.875 53.28125c0 0-19.382813-27.121094 8.875-53.28125zm0 0" fill="url(#c)" fill-rule="evenodd"/><path d="m158.980469 17.9375s2.808593 29.523438-8.875 53.285156c0 0-19.386719-27.125 8.875-53.285156zm0 0" fill="url(#d)" fill-rule="evenodd"/><path d="m211.085938 142.632812c0 43.042969-38.554688 83.074219-81.839844 83.074219-43.28125 0-80.449219-43.082031-80.449219-86.125s36.261719-76.867187 79.546875-76.867187c43.28125 0 82.742188 36.875 82.742188 79.917968zm0 0" fill="url(#e)"/><g fill-rule="evenodd"><path d="m212.980469 164.109375c.195312 14.925781-7.03125 40.871094-19.609375 40.128906-8.542969-.507812-21.191406-14.355469-21.191406-31.566406 0-17.214844 9.121093-29.964844 17.679687-29.964844 8.554687 0 22.894531 4.191407 23.121094 21.402344zm0 0" fill="url(#f)"/><path d="m166.914062 112.191406c0 15.105469-25.59375 33.003906-51.988281 33.003906-26.390625 0-50.4375-18.101562-50.4375-33.207031s24.199219-30.816406 50.589844-30.816406c26.394531 0 51.835937 15.914063 51.835937 31.019531zm0 0" fill="#5a120f"/><path d="m106.257812 109.578125c0 7.292969-6.472656 13.207031-14.460937 13.207031s-14.460937-5.914062-14.460937-13.207031c0-7.296875 6.472656-13.210937 14.460937-13.210937s14.460937 5.914062 14.460937 13.210937zm0 0" fill="#fffbfb"/><path d="m143.40625 112.769531c0 7.503907-7.347656 13.585938-16.414062 13.585938-9.066407 0-16.414063-6.082031-16.414063-13.585938 0-7.5 7.347656-13.582031 16.414063-13.582031 9.066406 0 16.414062 6.082031 16.414062 13.582031zm0 0" fill="#fffbfb"/><path d="m128.894531 113.113281c0 1.503907-1.222656 2.726563-2.730469 2.726563-1.503906 0-2.726562-1.222656-2.726562-2.726563 0-1.507812 1.222656-2.730469 2.726562-2.730469 1.507813 0 2.730469 1.222657 2.730469 2.730469zm0 0" fill="#981915"/><path d="m93.191406 109.953125c0 1.507813-1.21875 2.730469-2.726562 2.730469-1.507813 0-2.730469-1.222656-2.730469-2.730469 0-1.503906 1.222656-2.726563 2.730469-2.726563 1.507812 0 2.726562 1.222657 2.726562 2.726563zm0 0" fill="#981915"/></g></svg>

<!-- Generator: Adobe Illustrator 16.0.2, SVG Export Plug-In . SVG Version: 6.00 Build 0)  -->
<svg xmlns="http://www.w3.org/2000/svg" xmlns:xlink="http://www.w3.org/1999/xlink" width="250px" height="250px" viewBox="0 0 250 250" version="1.1">
<defs>
<linearGradient id="linear0" gradientUnits="userSpaceOnUse" x1="104.3311" y1="419.015594" x2="239.382294" y2="419.015594" gradientTransform="matrix(0.397273,0,0,0.397273,0,0)">
<stop offset="0" style="stop-color:rgb(97.254902%,77.64706%,78.039217%);stop-opacity:1;"/>
<stop offset="0.6989" style="stop-color:rgb(91.764706%,31.764707%,30.588236%);stop-opacity:1;"/>
</linearGradient>
<linearGradient id="linear1" gradientUnits="userSpaceOnUse" x1="218.393997" y1="122.662102" x2="257.803192" y2="122.662102" gradientTransform="matrix(0.397273,0,0,0.397273,0,0)">
<stop offset="0" style="stop-color:rgb(97.254902%,77.64706%,78.039217%);stop-opacity:1;"/>
<stop offset="1" style="stop-color:rgb(91.764706%,31.764707%,30.588236%);stop-opacity:1;"/>
</linearGradient>
<linearGradient id="linear2" gradientUnits="userSpaceOnUse" x1="361.512695" y1="112.213898" x2="400.922913" y2="112.213898" gradientTransform="matrix(0.397273,0,0,0.397273,0,0)">
<stop offset="0" style="stop-color:rgb(97.254902%,77.64706%,78.039217%);stop-opacity:1;"/>
<stop offset="1" style="stop-color:rgb(91.764706%,31.764707%,30.588236%);stop-opacity:1;"/>
</linearGradient>
<linearGradient id="linear3" gradientUnits="userSpaceOnUse" x1="122.834503" y1="363.001007" x2="531.333008" y2="363.001007" gradientTransform="matrix(0.397273,0,0,0.397273,0,0)">
<stop offset="0" style="stop-color:rgb(97.254902%,77.64706%,78.039217%);stop-opacity:1;"/>
<stop offset="1" style="stop-color:rgb(91.764706%,31.764707%,30.588236%);stop-opacity:1;"/>
</linearGradient>
<linearGradient id="linear4" gradientUnits="userSpaceOnUse" x1="433.404297" y1="436.673798" x2="536.115173" y2="436.673798" gradientTransform="matrix(0.397273,0,0,0.397273,0,0)">
<stop offset="0" style="stop-color:rgb(97.254902%,77.64706%,78.039217%);stop-opacity:1;"/>
<stop offset="0.7688" style="stop-color:rgb(91.764706%,31.764707%,30.588236%);stop-opacity:1;"/>
</linearGradient>
</defs>
<g id="surface1">
<path style=" stroke:none;fill-rule:evenodd;fill:url(#linear0);" d="M 61.738281 149.410156 C 61.738281 173.480469 112.855469 212.421875 88.542969 212.421875 C 64.226562 212.421875 41.449219 190.527344 41.449219 166.457031 C 41.449219 142.390625 47.523438 120.503906 71.835938 120.503906 C 96.148438 120.503906 61.738281 125.339844 61.738281 149.410156 Z M 61.738281 149.410156 "/>
<path style=" stroke:none;fill-rule:evenodd;fill:url(#linear1);" d="M 102.121094 22.089844 C 102.121094 22.089844 104.929688 51.613281 93.246094 75.371094 C 93.246094 75.371094 73.863281 48.25 102.121094 22.089844 Z M 102.121094 22.089844 "/>
<path style=" stroke:none;fill-rule:evenodd;fill:url(#linear2);" d="M 158.980469 17.9375 C 158.980469 17.9375 161.789062 47.460938 150.105469 71.222656 C 150.105469 71.222656 130.71875 44.097656 158.980469 17.9375 Z M 158.980469 17.9375 "/>
<path style=" stroke:none;fill-rule:nonzero;fill:url(#linear3);" d="M 211.085938 142.632812 C 211.085938 185.675781 172.53125 225.707031 129.246094 225.707031 C 85.964844 225.707031 48.796875 182.625 48.796875 139.582031 C 48.796875 96.539062 85.058594 62.714844 128.34375 62.714844 C 171.625 62.714844 211.085938 99.589844 211.085938 142.632812 Z M 211.085938 142.632812 "/>
<path style=" stroke:none;fill-rule:evenodd;fill:url(#linear4);" d="M 212.980469 164.109375 C 213.175781 179.035156 205.949219 204.980469 193.371094 204.238281 C 184.828125 203.730469 172.179688 189.882812 172.179688 172.671875 C 172.179688 155.457031 181.300781 142.707031 189.859375 142.707031 C 198.414062 142.707031 212.753906 146.898438 212.980469 164.109375 Z M 212.980469 164.109375 "/>
<path style=" stroke:none;fill-rule:evenodd;fill:rgb(35.294119%,7.058824%,5.882353%);fill-opacity:1;" d="M 166.914062 112.191406 C 166.914062 127.296875 141.320312 145.195312 114.925781 145.195312 C 88.535156 145.195312 64.488281 127.09375 64.488281 111.988281 C 64.488281 96.882812 88.6875 81.171875 115.078125 81.171875 C 141.472656 81.171875 166.914062 97.085938 166.914062 112.191406 Z M 166.914062 112.191406 "/>
<path style=" stroke:none;fill-rule:evenodd;fill:rgb(100%,98.431373%,98.431373%);fill-opacity:1;" d="M 106.257812 109.578125 C 106.257812 116.871094 99.785156 122.785156 91.796875 122.785156 C 83.808594 122.785156 77.335938 116.871094 77.335938 109.578125 C 77.335938 102.28125 83.808594 96.367188 91.796875 96.367188 C 99.785156 96.367188 106.257812 102.28125 106.257812 109.578125 Z M 106.257812 109.578125 "/>
<path style=" stroke:none;fill-rule:evenodd;fill:rgb(100%,98.431373%,98.431373%);fill-opacity:1;" d="M 143.40625 112.769531 C 143.40625 120.273438 136.058594 126.355469 126.992188 126.355469 C 117.925781 126.355469 110.578125 120.273438 110.578125 112.769531 C 110.578125 105.269531 117.925781 99.1875 126.992188 99.1875 C 136.058594 99.1875 143.40625 105.269531 143.40625 112.769531 Z M 143.40625 112.769531 "/>
<path style=" stroke:none;fill-rule:evenodd;fill:rgb(59.607846%,9.803922%,8.235294%);fill-opacity:1;" d="M 128.894531 113.113281 C 128.894531 114.617188 127.671875 115.839844 126.164062 115.839844 C 124.660156 115.839844 123.4375 114.617188 123.4375 113.113281 C 123.4375 111.605469 124.660156 110.382812 126.164062 110.382812 C 127.671875 110.382812 128.894531 111.605469 128.894531 113.113281 Z M 128.894531 113.113281 "/>
<path style=" stroke:none;fill-rule:evenodd;fill:rgb(59.607846%,9.803922%,8.235294%);fill-opacity:1;" d="M 93.191406 109.953125 C 93.191406 111.460938 91.972656 112.683594 90.464844 112.683594 C 88.957031 112.683594 87.734375 111.460938 87.734375 109.953125 C 87.734375 108.449219 88.957031 107.226562 90.464844 107.226562 C 91.972656 107.226562 93.191406 108.449219 93.191406 109.953125 Z M 93.191406 109.953125 "/>
</g>
</svg>
